src/assets/icons/video.svg

<svg width="14" height="14" viewBox="0 0 14 14" fill="none" xmlns="http://www.w3.org/2000/svg">
<g id="video">
<path id="Vector" fill-rule="evenodd" clip-rule="evenodd" d="M1.2 3.79998C1.2 3.24769 1.64772 2.79998 2.2 2.79998H7.8C8.35229 2.79998 8.8 3.24769 8.8 3.79998V6.19998V7.79998V10.2C8.8 10.7523 8.35229 11.2 7.8 11.2H2.2C1.64772 11.2 1.2 10.7523 1.2 10.2V3.79998ZM10 8.85969V10.2C10 11.415 9.01503 12.4 7.8 12.4H2.2C0.984974 12.4 0 11.415 0 10.2V3.79998C0 2.58495 0.984974 1.59998 2.2 1.59998H7.8C9.01503 1.59998 10 2.58495 10 3.79998V5.14026L13.0913 3.28548C13.2767 3.17426 13.5075 3.17135 13.6956 3.27786C13.8837 3.38436 14 3.58381 14 3.79998V10.2C14 10.4161 13.8837 10.6156 13.6956 10.7221C13.5075 10.8286 13.2767 10.8257 13.0913 10.7145L10 8.85969ZM10 7.46026L12.8 9.14026V4.85969L10 6.53969V7.46026Z" fill="black"/>
</g>
</svg>

<svg xmlns="http://www.w3.org/2000/svg" fill="none" viewBox="0 0 14 14"><path fill="#000" fill-rule="evenodd" d="M1.2 3.8a1 1 0 0 1 1-1h5.6a1 1 0 0 1 1 1v6.4a1 1 0 0 1-1 1H2.2a1 1 0 0 1-1-1zM10 8.86v1.34a2.2 2.2 0 0 1-2.2 2.2H2.2A2.2 2.2 0 0 1 0 10.2V3.8a2.2 2.2 0 0 1 2.2-2.2h5.6A2.2 2.2 0 0 1 10 3.8v1.34l3.091-1.855A.6.6 0 0 1 14 3.8v6.4a.6.6 0 0 1-.909.515zm0-1.4 2.8 1.68V4.86L10 6.54z" clip-rule="evenodd"/></svg>
